X: 36910
T: Shootin' The Bull
R: polka
M: 2/4
K: Adorian
|:eA Ad|ef gf|eA Ae|d2 dB/d/|
eA Ad|ef gf|ef/e/ dB|A2 AB/d/:|
|:ea ag|ed dB/d/|ea ag|ef g>f/|
ea ag|ed dB|ef/e/ dB|A2 AB/d/:|

